X:326
T:John McDonalds March 
C:Joe Buchanan's Scottish Tome - Page 100.0
I:100 0
C:J. Shandon
R:March
Z:Carl Allison
L:1/8
M:2/4
K:D
f2 | A>AAd f2 (ed) | B>A(Bd) (BA)(Ad) | c2 (cd) e2 (ef) | .g.f.e.d .f.e.c.A |
A>AAd f2 (ed) | B>ABd (BA) (Ad) | c2 (cd) e2 (ef) | gec/e (d2 d) :|
fg | a2 (ag) f2 (fe) | d>edB A3 d | c2 (de)e2 (ef) | .g.f.e.d .f.e.c.A |
a2 (ag) f2 (fe) | d>edB A3 d | c2 (cd) e3 f | gece d2 d/e/f/g/ |
.a.A.a.g f2 (fe) | d>edB A3 d | c (cd) e2 (ef) | gfed fecA |
A>AAd f2 (ed) | B>Bd (BA)(Ad) | c2 (cd) e2 (ef) | .g.e.c.e (d2 d) |]
A2 | d2 (fd) .a.f.d.A | B>ABd BAAd | c2 (cd) e3 f | .g.f.e.d .f.e.c.A |
d2 (fd) afdA | B>ABd BAAd | c2 (cd) e2 (ef) | .g.e.c.e (d2 d) :|
f/g/ | aAag fAfe | de/dB A3 d | c2 (cd) e2 (ef) | gfed fecA |
aAag fAfe | d>edB A3 d | c2 (cd) e2 (ef) | gece d/e/f/g/ |
aAag fAfe | d>edB A3 d | c2 (cd) e2 (ef) | gfed fecA |
A>AAd f2 (ed) | B>ABd BAAd | c2 (cd) e2 (ef) | gece (d3 d) |]

